X: 13546
T: Flowing Bowl, The
R: reel
M: 4/4
K: Dmajor
gfed cA A2|cAdA cA A2|gfed cA A2|fage d2ef|
gfed cA A2|cAdA cA A2|gfed cA A2|fage dABc||
df f2 af f2|dfaf gece|df f2 af f2|g3e cABc|
df f2 af f2|dfaf gece|f3d g3e|fage d2 ef||

